X:1
T:Nottingham, 77.77
T:Nottingham, 77.77
T:Attr. variously to Mozart or Wenzel Müller
T:Public Domain Courtesy of the Cyber Hymnal™
C:Attr. variously to Mozart or Wenzel Müller
Z:Public Domain
Z:Courtesy of the Cyber Hymnal™
%%score ( 1 2 ) ( 3 4 )
L:1/8
Q:1/4=125
M:3/4
K:G
V:1 treble 
V:2 treble 
V:3 bass 
V:4 bass 
V:1
 [DG]4 [DG]2 | [DF]4 D2 | c4 [Fc]2 | [GB]6 | [Gd]4 [GB]2 | (d2 c2) [DA]2 | [DG]4 [GB]2 | [FA]6 | %8
 G4 [DG]2 | (F3 E) D2 | c4 [Fc]2 | [GB]6 | d4 [=FB]2 | (A2 c2) [Ee]2 | [DG]4 [CF]2 | [B,G]6 |] %16
V:2
 x6 | x4 D2 | (D2 F2) x2 | x6 | x6 | E4 x2 | x6 | x6 | (B,2 D2) x2 | D4 D2 | (D2 F2) x2 | x6 | %12
 (D2 G2) x2 | E4 x2 | x6 | x6 |] %16
V:3
 [G,B,]4 [G,B,]2 | [D,A,]4 ([D,F,][E,G,]) | ([D,F,]2 [F,A,]2) [D,D]2 | [G,D]6 | %4
 ([B,D]2 [G,B,]2) [G,B,]2 | A,4 [F,C]2 | B,4 [G,D]2 | [D,D]6 | G,4 [G,B,]2 | %9
 (C3 B,) ([F,A,][E,G,]) | ([D,F,]2 [F,A,]2) [D,D]2 | [G,D]6 | [G,B,]4 [^G,D]2 | [A,C]4 [C,A,]2 | %14
 [D,B,]4 [D,A,]2 | [G,,G,]6 |] %16
V:4
 x6 | x6 | x6 | x6 | x6 | A,4 x2 | (G,2 B,2) x2 | x6 | (G,,2 B,,2) x2 | D,4 x2 | x6 | x6 | x6 | %13
 x6 | x6 | x6 |] %16

